X:1
T:The Gospel of Thy Grace
T:The Gospel of Thy Grace
T:James McGranahan
T:Arthur Tappan Pierson, 1878
T:Public Domain Courtesy of the Cyber Hymnal™
T:Public Domain Courtesy of the Cyber Hymnal™
C:James McGranahan
Z:Public Domain
Z:Courtesy of the Cyber Hymnal™
%%score ( 1 2 ) ( 3 4 )
L:1/8
Q:1/4=110
M:4/4
K:G
V:1 treble 
V:2 treble 
V:3 bass 
V:4 bass 
V:1
 D2 | [DG]3 [FA] [GB]2 [Ac]2 | (d4 B2) G2 | [GB]2 [FA]2 G2 [DF]2 | [DG]6 [DG]2 | %5
w: 1.~The|gos- pel of Thy|grace * My|stub- born heart has|won, For|
w: 2.~The|ser- pent “lift- ed|up” * Could|life and heal- ing|give, So|
w: 3.~“The|soul that sin- neth|dies”: * My|aw- ful doom I|heard; I|
w: 4.~“Not|to con- demn the|world” * The|“Man of sor- rows”|came; But|
w: 5.~“Lord,|help my un- be-|lief!” * Give|me the peace of|faith, To|
 [DF]2 [DG]2 [FA]2 [GB]2 | [Ac]6 [GB]2 | [FA]2 [Fd]2 [Gd]2 [G^c]2 | [Fd]6 || %9
w: God so loved the|world He|gave His on- ly|Son,|
w: Je- sus on the|cross Bids|me to look and|live;|
w: was for- ev- er|lost, But|for Thy gra- cious|word|
w: that the world might|have Sal-|va- tion thro’ His|Name;|
w: rest with child- like|trust On|what Thy Gos- pel|saith,|
"^Refrain" [Gd]2 [Ge]3 [G^d] [Ge]2 [G^c]2 | [Gd]3 [G^c] [Gd]2 [GB]2 | [Ac]3 [^GB] [Ac]2 [FA]2 | %12
w: That * * * *|||
w: For * * * *|||
w: That “Who- so- ev- er|will be- lieve, Shall|ev- er- last- ing|
w: For * * * *|||
w: That * * * *|||
 [GB]2 G2 [FA]2 D2 | ([DG]3 [FA] [GB]2) [Fc]2 | d6 [Ac]2 | [GB]4 A4 | [DG]6 x2 |] x6 |] %18
w: ||||||
w: ||||||
w: life re- ceive!” “Shall|ev- * * er-|last- ing|life re-|ceive!”||
w: ||||||
w: ||||||
V:2
 D2 | x8 | G6 G2 | x4 G2 x2 | x8 | x8 | x8 | x8 | x6 || x10 | x8 | x8 | x2 G2 D2 x2 | x8 | %14
 (G3 A B2) x2 | x4 (F2 D2) | x8 |] x6 |] %18
V:3
 [G,B,]2 | [G,B,]3 [G,C] [G,D]2 [G,C]2 | (B,4 D2) [B,,D]2 | [D,D]2 [D,C]2 [D,B,]2 [D,A,]2 | %4
 [G,,B,]6 [G,,B,]2 | [D,A,]2 [D,B,]2 [D,C]2 [D,D]2 | D6 [G,D]2 | [A,D]2 A,2 [A,,A,]2 [A,,A,]2 | %8
 [D,A,]6 || [G,B,]2 x8 | [C,C]3 [C,B,] [C,C]2 [E,^A,]2 | [G,B,]3 [G,^A,] [G,B,]2 [G,D]2 | %12
 [D,D]3 [D,D] [D,D]2 [D,D]2 | [G,D]2 [B,,D]2 [D,D]2 D2 | D6 [A,D]2 | %15
 ([B,D]3 [A,C] [G,B,]2) [C,E]2 | [D,D]4 (D2 C2) |] [G,,B,]6 |] %18
V:4
 x2 | x8 | G,6 x2 | x8 | x8 | x8 | (D,2 E,2 F,2) x2 | x2 A,2 x4 | x6 || x10 | x8 | x8 | x8 | %13
 x6 (D,C,) | (B,,3 D, G,2) x2 | x8 | x4 D,4 |] x6 |] %18

